assets/img/SVG/Github.svg

<?xml version="1.0" encoding="UTF-8" standalone="no"?>
<svg width="25px" height="25px" viewBox="0 0 25 25" version="1.1" xmlns="http://www.w3.org/2000/svg" xmlns:xlink="http://www.w3.org/1999/xlink">
    <!-- Generator: Sketch 3.8.3 (29802) - http://www.bohemiancoding.com/sketch -->
    <title>Github Copy 2</title>
    <desc>Created with Sketch.</desc>
    <defs></defs>
    <g id="Welcome" stroke="none" stroke-width="1" fill="none" fill-rule="evenodd">
        <g id="Upcoming-Events-Desktop-HD" transform="translate(-572.000000, -1144.000000)" fill="#4A4A4A">
            <g id="Github" transform="translate(572.000000, 1144.000000)">
                <g id="Page-1">
                    <path d="M0.000454545455,12.4465027 C0.000454545455,17.9454272 3.58174924,22.6100005 8.548906,24.2565452 C9.17430887,24.3703899 9.40221642,23.9860687 9.40221642,23.6559957 C9.40221642,23.3610694 9.3914733,22.5779101 9.38533438,21.5395554 C5.90840138,22.2913884 5.17479998,19.8708531 5.17479998,19.8708531 C4.60618216,18.4336602 3.78663583,18.0501031 3.78663583,18.0501031 C2.65170228,17.2784047 3.87258076,17.2936859 3.87258076,17.2936859 C5.12722332,17.3815525 5.78715764,18.576539 5.78715764,18.576539 C6.90213968,20.4782791 8.71312221,19.9289214 9.42523738,19.6110734 C9.53880747,18.8065204 9.86110097,18.2579269 10.2186933,17.9469553 C7.44313234,17.6329275 4.52484142,16.5647746 4.52484142,11.7955254 C4.52484142,10.4370305 5.0121185,9.32609037 5.81171333,8.45582846 C5.68279593,8.14103662 5.25383863,6.87575678 5.93372444,5.16197498 C5.93372444,5.16197498 6.98348042,4.82731763 9.3715218,6.43795162 C10.3683296,6.16136267 11.438037,6.02383225 12.5008382,6.01924791 C13.5621047,6.02383225 14.6318122,6.16136267 15.6301547,6.43795162 C18.0166613,4.82731763 19.0641152,5.16197498 19.0641152,5.16197498 C19.7463031,6.87575678 19.3173458,8.14103662 19.1884284,8.45582846 C19.989558,9.32609037 20.4737656,10.4370305 20.4737656,11.7955254 C20.4737656,16.5769996 17.5508705,17.6291073 14.7661011,17.9370226 C15.2150099,18.3213437 15.6148073,19.0808172 15.6148073,20.2421852 C15.6148073,21.9055392 15.59946,23.2479888 15.59946,23.6559957 C15.59946,23.989125 15.8242981,24.3765023 16.4589094,24.2550171 C21.4222293,22.6054162 25.0004545,17.9438991 25.0004545,12.4465027 C25.0004545,5.57227405 19.4032907,0 12.4993035,0 C5.596851,0 0.000454545455,5.57227405 0.000454545455,12.4465027 Z" id="Fill-1"></path>
                </g>
            </g>
        </g>
    </g>
</svg>

<svg width="25" height="25" viewBox="0 0 25 25" xmlns="http://www.w3.org/2000/svg"><title>Github Copy 2</title><path d="M0 12.447c0 5.498 3.582 10.163 8.549 11.81.625.113.853-.27.853-.601 0-.295-.01-1.078-.017-2.116-3.477.751-4.21-1.67-4.21-1.67-.569-1.436-1.388-1.82-1.388-1.82-1.135-.772.086-.756.086-.756 1.254.088 1.914 1.283 1.914 1.283 1.115 1.901 2.926 1.352 3.638 1.034.114-.804.436-1.353.794-1.664-2.776-.314-5.694-1.382-5.694-6.151 0-1.359.487-2.47 1.287-3.34-.13-.315-.558-1.58.122-3.294 0 0 1.05-.335 3.438 1.276a11.988 11.988 0 0 1 3.129-.419c1.061.005 2.13.142 3.13.419 2.386-1.61 3.433-1.276 3.433-1.276.682 1.714.253 2.979.124 3.294.802.87 1.286 1.981 1.286 3.34 0 4.781-2.923 5.833-5.708 6.141.449.384.849 1.144.849 2.305 0 1.664-.016 3.006-.016 3.414 0 .333.225.72.86.599C21.422 22.605 25 17.944 25 12.447 25 5.572 19.403 0 12.5 0S0 5.572 0 12.447z" fill="#4A4A4A" fill-rule="evenodd"/></svg>
